X: 4
T: The Acrobat
R: hornpipe
M: 4/4
L: 1/8
K: Gmin
|: F>E |D>FB>c d>Bg>f | (3ecA (3ecA a3 g | f>=e_e>c A>ag>f | =e>fg>f d>BF>E |
D>FB>c d>Bg>f | (3ecA (3ecA a3 g | f>=e_e>c A>ag>A | B2 d2 B2 :|
|: c>B |A>cd>c a>f=e>f | d>Bd>g b>g^f>g | =e>c=B>c ^c>d^d>=e | ((3gf=e (3fed c2c>B |
A>cd>c a>f=e>f | d>Bd>g b>g^f>g | =e>c=B>c ^c>d^d>=e | f2 a2 f2 :|


Tune 3459	Setting 20693

